Newaita-dark/apps/64/converseen.svg

<?xml version="1.0" encoding="UTF-8"?>
<svg xmlns="http://www.w3.org/2000/svg" xmlns:xlink="http://www.w3.org/1999/xlink" width="64pt" height="64pt" viewBox="0 0 64 64" version="1.1">
<defs>
<radialGradient id="radial0" gradientUnits="userSpaceOnUse" cx="450.908936" cy="189.579361" fx="450.908936" fy="189.579361" r="21.166656" gradientTransform="matrix(0.000000348341,-0.156265,-0.281277,-0.000000203077,84.415659,127.190659)">
<stop offset="0" style="stop-color:rgb(0%,0%,0%);stop-opacity:0.313725;"/>
<stop offset="0.222222" style="stop-color:rgb(0%,0%,0%);stop-opacity:0.27451;"/>
<stop offset="1" style="stop-color:rgb(0%,0%,0%);stop-opacity:0;"/>
</radialGradient>
<radialGradient id="radial1" gradientUnits="userSpaceOnUse" cx="450.908936" cy="189.579361" fx="450.908936" fy="189.579361" r="21.166656" gradientTransform="matrix(-0.000000348341,0.156265,0.281277,0.000000203077,-20.909584,-15.054964)">
<stop offset="0" style="stop-color:rgb(0%,0%,0%);stop-opacity:0.313725;"/>
<stop offset="0.222222" style="stop-color:rgb(0%,0%,0%);stop-opacity:0.27451;"/>
<stop offset="1" style="stop-color:rgb(0%,0%,0%);stop-opacity:0;"/>
</radialGradient>
<radialGradient id="radial2" gradientUnits="userSpaceOnUse" cx="450.908936" cy="189.579361" fx="450.908936" fy="189.579361" r="21.166656" gradientTransform="matrix(-0.000000348341,-0.156265,0.281277,-0.000000203077,-20.909584,127.190659)">
<stop offset="0" style="stop-color:rgb(0%,0%,0%);stop-opacity:0.313725;"/>
<stop offset="0.222222" style="stop-color:rgb(0%,0%,0%);stop-opacity:0.27451;"/>
<stop offset="1" style="stop-color:rgb(0%,0%,0%);stop-opacity:0;"/>
</radialGradient>
<radialGradient id="radial3" gradientUnits="userSpaceOnUse" cx="450.908936" cy="189.579361" fx="450.908936" fy="189.579361" r="21.166656" gradientTransform="matrix(0.000000348341,0.156265,-0.281277,0.000000203077,84.415655,-15.054965)">
<stop offset="0" style="stop-color:rgb(0%,0%,0%);stop-opacity:0.313725;"/>
<stop offset="0.222222" style="stop-color:rgb(0%,0%,0%);stop-opacity:0.27451;"/>
<stop offset="1" style="stop-color:rgb(0%,0%,0%);stop-opacity:0;"/>
</radialGradient>
<linearGradient id="linear0" gradientUnits="userSpaceOnUse" x1="254" y1="191.166672" x2="254" y2="-126.333344" gradientTransform="matrix(0,-0.125012,-0.125012,0,35.805505,62.683067)">
<stop offset="0" style="stop-color:rgb(48.627451%,70.196078%,25.882353%);stop-opacity:1;"/>
<stop offset="1" style="stop-color:rgb(40.784314%,62.352941%,21.960784%);stop-opacity:1;"/>
</linearGradient>
</defs>
<g id="surface1">
<path style=" stroke:none;fill-rule:nonzero;fill:url(#radial0);" d="M 31.753906 56.066406 L 37.046875 56.066406 L 37.046875 53.421875 L 31.753906 53.421875 Z M 31.753906 56.066406 "/>
<path style=" stroke:none;fill-rule:nonzero;fill:url(#radial1);" d="M 31.753906 56.066406 L 26.460938 56.066406 L 26.460938 58.714844 L 31.753906 58.714844 Z M 31.753906 56.066406 "/>
<path style=" stroke:none;fill-rule:nonzero;fill:url(#radial2);" d="M 31.753906 56.066406 L 26.460938 56.066406 L 26.460938 53.421875 L 31.753906 53.421875 Z M 31.753906 56.066406 "/>
<path style=" stroke:none;fill-rule:nonzero;fill:url(#radial3);" d="M 31.753906 56.066406 L 37.046875 56.066406 L 37.046875 58.714844 L 31.753906 58.714844 Z M 31.753906 56.066406 "/>
<path style=" stroke:none;fill-rule:nonzero;fill:url(#linear0);" d="M 51.597656 30.929688 C 51.597656 41.925781 42.746094 50.777344 31.753906 50.777344 L 31.753906 56.066406 L 17.199219 48.128906 C 15.875 47.46875 15.875 46.144531 17.199219 45.484375 L 31.753906 37.546875 L 31.753906 42.835938 C 40.546875 42.835938 47.628906 37.527344 47.628906 30.929688 C 47.628906 30.5625 47.925781 30.269531 48.292969 30.269531 L 50.9375 30.269531 C 51.304688 30.269531 51.597656 30.5625 51.597656 30.929688 Z M 47.296875 15.054688 C 47.296875 15.550781 46.96875 16.046875 46.304688 16.375 L 31.753906 24.316406 L 31.753906 19.023438 C 22.957031 19.023438 15.875 24.332031 15.875 30.929688 C 15.875 31.296875 15.582031 31.589844 15.214844 31.589844 L 12.570312 31.589844 C 12.203125 31.589844 11.90625 31.296875 11.90625 30.929688 C 11.90625 19.9375 20.757812 11.085938 31.753906 11.085938 L 31.753906 5.792969 L 46.304688 13.730469 C 46.96875 14.0625 47.296875 14.558594 47.296875 15.054688 Z M 47.296875 15.054688 "/>
<path style=" stroke:none;fill-rule:nonzero;fill:rgb(100%,100%,100%);fill-opacity:0.392157;" d="M 31.753906 5.792969 L 31.753906 6.289062 L 46.304688 14.226562 C 46.855469 14.503906 47.179688 14.890625 47.269531 15.300781 C 47.289062 15.21875 47.296875 15.136719 47.296875 15.054688 C 47.296875 14.558594 46.96875 14.0625 46.304688 13.730469 Z M 31.753906 11.085938 C 20.757812 11.085938 11.90625 19.933594 11.90625 30.929688 C 11.90625 30.957031 11.910156 30.980469 11.910156 31.007812 C 12.132812 20.207031 20.898438 11.582031 31.753906 11.582031 Z M 48.292969 30.269531 C 47.925781 30.269531 47.628906 30.5625 47.628906 30.929688 C 47.628906 37.527344 40.546875 42.835938 31.753906 42.835938 L 31.753906 43.332031 C 40.546875 43.332031 47.628906 38.023438 47.628906 31.425781 C 47.628906 31.058594 47.925781 30.765625 48.292969 30.765625 L 50.9375 30.765625 C 51.277344 30.765625 51.554688 31.019531 51.59375 31.347656 C 51.597656 31.210938 51.597656 31.070312 51.597656 30.929688 C 51.597656 30.5625 51.304688 30.269531 50.9375 30.269531 Z M 31.753906 37.546875 L 17.199219 45.484375 C 16.425781 45.871094 16.105469 46.480469 16.234375 47.054688 C 16.328125 46.644531 16.648438 46.253906 17.199219 45.980469 L 31.753906 38.042969 Z M 31.753906 37.546875 "/>
<path style=" stroke:none;fill-rule:nonzero;fill:rgb(0%,0%,0%);fill-opacity:0.235294;" d="M 47.269531 14.804688 C 47.179688 15.214844 46.859375 15.605469 46.304688 15.878906 L 31.753906 23.820312 L 31.753906 24.316406 L 46.304688 16.375 C 46.96875 16.046875 47.296875 15.550781 47.296875 15.054688 C 47.296875 14.96875 47.289062 14.886719 47.269531 14.804688 Z M 31.753906 18.527344 C 22.957031 18.527344 15.875 23.835938 15.875 30.433594 C 15.875 30.800781 15.582031 31.09375 15.214844 31.09375 L 12.570312 31.09375 C 12.230469 31.09375 11.949219 30.839844 11.910156 30.511719 C 11.910156 30.652344 11.90625 30.789062 11.90625 30.929688 C 11.90625 31.296875 12.203125 31.589844 12.570312 31.589844 L 15.214844 31.589844 C 15.582031 31.589844 15.875 31.296875 15.875 30.929688 C 15.875 24.332031 22.957031 19.023438 31.753906 19.023438 Z M 51.59375 30.851562 C 51.371094 41.652344 42.609375 50.28125 31.753906 50.28125 L 31.753906 50.777344 C 42.746094 50.777344 51.597656 41.925781 51.597656 30.929688 C 51.597656 30.902344 51.597656 30.878906 51.59375 30.851562 Z M 16.234375 46.558594 C 16.105469 47.132812 16.425781 47.742188 17.199219 48.128906 L 31.753906 56.066406 L 31.753906 55.570312 L 17.199219 47.632812 C 16.648438 47.359375 16.328125 46.96875 16.234375 46.558594 Z M 16.234375 46.558594 "/>
<path style=" stroke:none;fill-rule:nonzero;fill:rgb(20%,20%,20%);fill-opacity:1;" d="M 31.753906 5.605469 C 31.648438 5.605469 31.566406 5.6875 31.566406 5.792969 L 31.566406 10.90625 C 20.558594 11.007812 11.71875 19.898438 11.71875 30.929688 C 11.71875 30.953125 11.726562 30.980469 11.734375 31.003906 C 11.773438 31.433594 12.128906 31.777344 12.570312 31.777344 L 15.214844 31.777344 C 15.683594 31.777344 16.0625 31.398438 16.0625 30.929688 C 16.0625 27.699219 17.796875 24.777344 20.628906 22.652344 C 23.421875 20.558594 27.28125 19.253906 31.566406 19.21875 L 31.566406 24.316406 C 31.566406 24.382812 31.601562 24.441406 31.65625 24.476562 C 31.714844 24.511719 31.785156 24.511719 31.84375 24.480469 L 46.390625 16.542969 C 47.097656 16.191406 47.484375 15.632812 47.484375 15.054688 C 47.484375 14.472656 47.097656 13.914062 46.390625 13.5625 L 46.394531 13.566406 L 31.84375 5.628906 C 31.816406 5.613281 31.785156 5.605469 31.753906 5.605469 Z M 31.941406 6.109375 L 46.21875 13.894531 C 46.839844 14.207031 47.109375 14.640625 47.109375 15.054688 C 47.109375 15.464844 46.839844 15.902344 46.222656 16.207031 L 31.941406 24 L 31.941406 19.023438 C 31.941406 18.917969 31.855469 18.835938 31.753906 18.835938 C 27.316406 18.835938 23.308594 20.171875 20.402344 22.351562 C 17.496094 24.53125 15.6875 27.566406 15.6875 30.929688 C 15.6875 31.195312 15.480469 31.402344 15.214844 31.402344 L 12.570312 31.402344 C 12.304688 31.402344 12.09375 31.195312 12.09375 30.929688 C 12.09375 20.035156 20.859375 11.273438 31.753906 11.273438 C 31.855469 11.273438 31.941406 11.1875 31.941406 11.085938 Z M 48.289062 30.082031 C 47.824219 30.082031 47.441406 30.460938 47.441406 30.929688 C 47.441406 34.160156 45.710938 37.082031 42.878906 39.207031 C 40.085938 41.300781 36.226562 42.605469 31.941406 42.644531 L 31.941406 37.546875 C 31.941406 37.480469 31.90625 37.417969 31.847656 37.382812 C 31.792969 37.351562 31.722656 37.347656 31.664062 37.378906 L 17.109375 45.320312 L 17.117188 45.316406 C 16.410156 45.667969 16.019531 46.226562 16.019531 46.804688 C 16.019531 47.386719 16.410156 47.945312 17.117188 48.296875 L 31.664062 56.234375 C 31.722656 56.265625 31.792969 56.261719 31.847656 56.230469 C 31.90625 56.195312 31.941406 56.132812 31.941406 56.066406 L 31.941406 50.953125 C 42.949219 50.851562 51.785156 41.960938 51.785156 30.929688 C 51.785156 30.460938 51.40625 30.082031 50.9375 30.082031 Z M 48.289062 30.457031 L 50.9375 30.457031 C 51.203125 30.457031 51.410156 30.664062 51.410156 30.929688 C 51.410156 41.824219 42.648438 50.589844 31.753906 50.589844 C 31.648438 50.589844 31.566406 50.671875 31.566406 50.777344 L 31.566406 55.75 L 17.289062 47.964844 C 16.667969 47.652344 16.394531 47.21875 16.394531 46.804688 C 16.394531 46.394531 16.667969 45.960938 17.285156 45.652344 L 31.566406 37.859375 L 31.566406 42.835938 C 31.566406 42.941406 31.648438 43.023438 31.753906 43.023438 C 36.1875 43.023438 40.195312 41.6875 43.101562 39.507812 C 46.007812 37.328125 47.816406 34.296875 47.816406 30.929688 C 47.816406 30.664062 48.023438 30.457031 48.289062 30.457031 Z M 48.289062 30.457031 "/>
</g>
</svg>

<svg xmlns="http://www.w3.org/2000/svg" width="64pt" height="64pt" viewBox="0 0 64 64"><defs><radialGradient id="a" gradientUnits="userSpaceOnUse" cx="450.909" cy="189.579" fx="450.909" fy="189.579" r="21.167" gradientTransform="matrix(0 -.15626 -.28128 0 84.416 127.19)"><stop offset="0" stop-opacity=".314"/><stop offset=".222" stop-opacity=".275"/><stop offset="1" stop-opacity="0"/></radialGradient><radialGradient id="b" gradientUnits="userSpaceOnUse" cx="450.909" cy="189.579" fx="450.909" fy="189.579" r="21.167" gradientTransform="matrix(0 .15626 .28128 0 -20.91 -15.055)"><stop offset="0" stop-opacity=".314"/><stop offset=".222" stop-opacity=".275"/><stop offset="1" stop-opacity="0"/></radialGradient><radialGradient id="c" gradientUnits="userSpaceOnUse" cx="450.909" cy="189.579" fx="450.909" fy="189.579" r="21.167" gradientTransform="matrix(0 -.15626 .28128 0 -20.91 127.19)"><stop offset="0" stop-opacity=".314"/><stop offset=".222" stop-opacity=".275"/><stop offset="1" stop-opacity="0"/></radialGradient><radialGradient id="d" gradientUnits="userSpaceOnUse" cx="450.909" cy="189.579" fx="450.909" fy="189.579" r="21.167" gradientTransform="matrix(0 .15626 -.28128 0 84.416 -15.055)"><stop offset="0" stop-opacity=".314"/><stop offset=".222" stop-opacity=".275"/><stop offset="1" stop-opacity="0"/></radialGradient><linearGradient id="e" gradientUnits="userSpaceOnUse" x1="254" y1="191.167" x2="254" y2="-126.333" gradientTransform="matrix(0 -.12501 -.12501 0 35.806 62.683)"><stop offset="0" stop-color="#7cb342"/><stop offset="1" stop-color="#689f38"/></linearGradient></defs><path d="M31.754 56.066h5.293v-2.644h-5.293zm0 0" fill="url(#a)"/><path d="M31.754 56.066H26.46v2.649h5.293zm0 0" fill="url(#b)"/><path d="M31.754 56.066H26.46v-2.644h5.293zm0 0" fill="url(#c)"/><path d="M31.754 56.066h5.293v2.649h-5.293zm0 0" fill="url(#d)"/><path d="M51.598 30.93a19.803 19.803 0 0 1-19.844 19.847v5.29l-14.555-7.938c-1.324-.66-1.324-1.984 0-2.645l14.555-7.937v5.289c8.793 0 15.875-5.309 15.875-11.906a.66.66 0 0 1 .664-.66h2.645c.367 0 .66.293.66.66zm-4.301-15.875c0 .496-.328.992-.992 1.32l-14.551 7.941v-5.293c-8.797 0-15.879 5.309-15.879 11.907 0 .367-.293.66-.66.66H12.57a.66.66 0 0 1-.664-.66 19.803 19.803 0 0 1 19.848-19.844V5.793l14.55 7.937c.665.332.993.829.993 1.325zm0 0" fill="url(#e)"/><path d="M31.754 5.793v.496l14.55 7.938c.551.277.876.664.966 1.074.02-.082.027-.164.027-.246 0-.496-.328-.992-.992-1.325zm0 5.293A19.8 19.8 0 0 0 11.906 30.93c0 .027.004.05.004.078a19.801 19.801 0 0 1 19.844-19.426zM48.293 30.27a.66.66 0 0 0-.664.66c0 6.597-7.082 11.906-15.875 11.906v.496c8.793 0 15.875-5.309 15.875-11.906a.66.66 0 0 1 .664-.66h2.645a.66.66 0 0 1 .656.582c.004-.137.004-.278.004-.418a.657.657 0 0 0-.66-.66zm-16.54 7.277L17.2 45.484c-.773.387-1.094.996-.965 1.57.094-.41.414-.8.965-1.074l14.555-7.937zm0 0" fill="#fff" fill-opacity=".392"/><path d="M47.27 14.805c-.09.41-.41.8-.965 1.074L31.754 23.82v.496l14.55-7.941c.665-.328.993-.824.993-1.32 0-.086-.008-.168-.027-.25zm-15.516 3.722c-8.797 0-15.879 5.309-15.879 11.907 0 .367-.293.66-.66.66H12.57a.664.664 0 0 1-.66-.582c0 .14-.004.277-.004.418 0 .367.297.66.664.66h2.645c.367 0 .66-.293.66-.66 0-6.598 7.082-11.907 15.879-11.907zm19.84 12.325a19.801 19.801 0 0 1-19.84 19.43v.495A19.803 19.803 0 0 0 51.598 30.93c0-.028 0-.051-.004-.078zm-35.36 15.707c-.129.574.192 1.183.965 1.57l14.555 7.937v-.496l-14.555-7.937c-.55-.274-.87-.664-.965-1.074zm0 0" fill-opacity=".235"/><path d="M31.754 5.605a.185.185 0 0 0-.188.188v5.113C20.56 11.008 11.72 19.898 11.72 30.93c0 .023.008.05.015.074.04.43.395.773.836.773h2.645a.847.847 0 0 0 .848-.847c0-3.23 1.734-6.153 4.566-8.278 2.793-2.093 6.652-3.398 10.937-3.433v5.097a.19.19 0 0 0 .09.16.189.189 0 0 0 .188.004l14.547-7.937c.707-.352 1.093-.91 1.093-1.488 0-.582-.386-1.14-1.093-1.492l.004.003L31.844 5.63a.181.181 0 0 0-.09-.024zm.187.504l14.278 7.786c.62.312.89.746.89 1.16 0 .41-.27.847-.886 1.152L31.94 24v-4.977a.188.188 0 0 0-.187-.187c-4.438 0-8.445 1.336-11.352 3.516-2.906 2.18-4.715 5.214-4.715 8.578a.467.467 0 0 1-.472.472H12.57a.47.47 0 0 1-.476-.472 19.61 19.61 0 0 1 19.66-19.657.19.19 0 0 0 .187-.187zM48.29 30.082a.85.85 0 0 0-.848.848c0 3.23-1.73 6.152-4.562 8.277-2.793 2.094-6.652 3.398-10.938 3.438v-5.098a.192.192 0 0 0-.093-.164.191.191 0 0 0-.184-.004L17.11 45.32l.008-.004c-.707.352-1.097.91-1.097 1.489 0 .582.39 1.14 1.097 1.492l14.547 7.937a.191.191 0 0 0 .184-.004.192.192 0 0 0 .093-.164v-5.113c11.008-.101 19.844-8.992 19.844-20.023a.847.847 0 0 0-.847-.848zm0 .375h2.648c.266 0 .473.207.473.473a19.61 19.61 0 0 1-19.656 19.66.185.185 0 0 0-.188.187v4.973L17.29 47.965c-.621-.313-.894-.746-.894-1.16 0-.41.273-.844.89-1.153l14.281-7.793v4.977c0 .105.082.187.188.187 4.433 0 8.441-1.336 11.348-3.515 2.906-2.18 4.714-5.211 4.714-8.578 0-.266.207-.473.473-.473zm0 0" fill="#333"/></svg>
